X: 198
T:Red Rose Cafe
M:3/4
R:waltz
L:1/8
Z:Alf Warnock - alf0@rogers.com
K:Em % transposed from Em
%%text Verse
B2|"Em"g2 g3g|g2 f2 e2|B2 B3B|B4 B2|B2 B3B|B2 e2 B2|"B7"A6-|A4 B2|
"B7"f2 f3f|f4 e2|^d2 d3d|^d4 c2|B2 B3B|B2 B2 A2|"Em"G6-|G4 B2|
g2 g3g|g2 f2 e2|e2 e3e|e4 B2|B3B B2|B2 e2 B2|"Am"A6-|A4 B2|
"B7"f2 f3f|f4 e2|^d2 d3d|^d4 ^c2|B2 B3B|B2 ^c2 ^d2|"E"e6|
K:E
%%text Chorus
"E"G2 B2 e2|g6|g4 e2|B6-|B2 G2 A2|B6|B6-|B6|
G2 B2 e2|g6|g4 e2|B6-|B2 G2 c2|"B7"B6-|B6|z6|
B2 B2 B2|"A"c6|c4 c2|c6-|c2 e2 a2|"E"g6|B6-|B6|
B2 B2 B2|"B7"B6-|B2 B2 B2|B6-|B2 c2 d2|"Em"e6-|e6|z6|z6|]

